X: 131
T:Missa Hercules dux Ferrarie / Kyrie
N: Derived from Jos1101a-Missa_Hercules_dux_Ferrarie-Kyrie.krn
C: Josquin des Prez
%%abc-version 2.0
%%abcx-abcm2ps-target-version 5.9.1 (29 Sep 2008)
%%abc-creator hum2abc beta
%%abcx-conversion-date 2019/02/12 16:15:44
%%abc-edited-by Jesse Rodin
%%abc-edited-by Jesse Rodin; Victoria Chang 2011/09/10
%%abcx-initial-encoding-date 2011/09/10/
%%humdrum-veritas 2544199948
%%humdrum-veritas-data 1466457908
%%linebreak <none>
%%barnumbers 0
L: 1/4
M: 3/1
Q: 1/2=120
%%staves [1 2 3 4]
V: 1 clef=treble
V: 2 clef=treble-8
V: 3 clef=treble-8
V: 4 clef=bass
K: C
[V:1] D12 | 
[V:2] D3EF2G2D2F2- | 
[V:3] z12 | 
[V:4] z12 | 
[V:1] C12 | 
[V:2] FEA3GF2EDE2 | 
[V:3] z12 | 
[V:4] z12 | 
[V:1] D12 | 
[V:2] z12 | 
[V:3] z12 | 
[V:4] D,3E,F,2G,2D,2F,2- | 
[V:1] C12 | 
[V:2] z12 | 
[V:3] z12 | 
[V:4] F,E,A,3G,F,2E,D,E,2 | 
[V:1] D12 | 
[V:2] D2G2F2D2z4 | 
[V:3] z12 | 
[V:4] z4z4D,2G,2 | 
[V:1] F12 | 
[V:2] z4A2d2c2A2 | 
[V:3] z12 | 
[V:4] F,2D,2z2D,2F,3E, | 
[V:1] E12 | 
[V:2] c3BG2E2G3A | 
[V:3] z12 | 
[V:4] C,2A,,2C,3D,E,3F, | 
[V:1] D12 | 
[V:2] Bcd4D2G4 | 
[V:3] z12 | 
[V:4] G,2D,2G,2F,2_B,4 | 
[V:1] A4F3GA2A,2 | 
[V:2] F12 | 
[V:3] D12 | 
[V:4] z2A,4F,3G,A,2 | 
[V:1] E4C3DE2A,2 | 
[V:2] z2c4A3Bc2 | 
[V:3] C12 | 
[V:4] A,,12 | 
[V:1] A4F3GA2A,2 | 
[V:2] F12 | 
[V:3] D12 | 
[V:4] z2A,4F,3G,A,2 | 
[V:1] E4C3DE2A,2 | 
[V:2] z2c4A3Bc2 | 
[V:3] C12 | 
[V:4] A,,12 | 
[V:1] A4F3GA2D2 | 
[V:2] F4z2A2F3G | 
[V:3] D12 | 
[V:4] z2A,4F,3G,A,2 | 
[V:1] z2A2F3GA2A,B, | 
[V:2] A2D2A8 | 
[V:3] F12 | 
[V:4] D,2A,4F,3G,A,2 | 
[V:1] CDE3DD4^C2 | 
[V:2] z2A2G2B2A4- | 
[V:3] E12 | 
[V:4] A,,2C,3B,,G,,2A,,4 | 
[V:1] D12 ||  
[V:2] A12 ||  
[V:3] D12 ||  
[V:4] D,12 ||  
[V:1]  [K:C] [K:clef=treble][M:2/1]D4F3G | 
[V:2]  [K:C] [K:clef=treble-8][M:2/1]z8 | 
[V:3]  [K:C] [K:clef=treble-8][M:2/1]z8 | 
[V:4]  [K:C] [K:clef=bass][M:2/1]z4D,4 | 
[V:1] A4z2A,2 | 
[V:2] A4c3d | 
[V:3] z8 | 
[V:4] F,3G,A,4 | 
[V:1] C3DEFG2- | 
[V:2] e4z2E2 | 
[V:3] z8 | 
[V:4] z2A,,2C,3D, | 
[V:1] G2FED3E | 
[V:2] G3AB3c | 
[V:3] z8 | 
[V:4] E,3F,G,4 | 
[V:1] F3GA4 | 
[V:2] d4z2A2 | 
[V:3] z8 | 
[V:4] z2D,2F,3G, | 
[V:1] z2A,2C3D | 
[V:2] c3de4 | 
[V:3] z8 | 
[V:4] A,4z2A,,2 | 
[V:1] EFG4FE | 
[V:2] z2E2G3A | 
[V:3] z8 | 
[V:4] C,3D,E,3F, | 
[V:1] D3EF3G | 
[V:2] B3cd4 | 
[V:3] z8 | 
[V:4] G,4z2D,2 | 
[V:1] A4E4 | 
[V:2] z2A2c3d | 
[V:3] A8 | 
[V:4] F,3G,A,2A,,2 | 
[V:1] z2G3FED | 
[V:2] e8- | 
[V:3] G8 | 
[V:4] C,3D,E,4 | 
[V:1] C4z2C2 | 
[V:2] e8 | 
[V:3] A8 | 
[V:4] z2A,,2C,3D, | 
[V:1] G3FD3E | 
[V:2] B4z2B2 | 
[V:3] G8 | 
[V:4] E,3F,G,4 | 
[V:1] F3GA3G | 
[V:2] c2d4A2- | 
[V:3] A8 | 
[V:4] z2D,2F,3G, | 
[V:1] E2c4BA | 
[V:2] ABcde4 | 
[V:3] c8 | 
[V:4] A,2A,,2C,3D, | 
[V:1] G4z2G2 | 
[V:2] z2e2d2B2 | 
[V:3] B8 | 
[V:4] E,3F,G,4 | 
[V:1] A2F3GAB | 
[V:2] c2d2A2f2 | 
[V:3] A8- | 
[V:4] z2D,2F,3G, | 
[V:1] c2A4GF | 
[V:2] e2f4ed | 
[V:3] A8- | 
[V:4] A,2D,2F,3G, | 
[V:1] E8- | 
[V:2] c8- | 
[V:3] A8- | 
[V:4] A,4A,,4 | 
[V:1] E8 ||  
[V:2] c8 ||  
[V:3] A8 ||  
[V:4] A,,8 ||  
[V:1]  [K:C] [K:clef=treble][M:3/1]A6F2F4 | 
[V:2]  [K:C] [K:clef=treble-8][M:3/1]A3Bc2d2A2d2- | 
[V:3]  [K:C] [K:clef=treble-8][M:3/1]z12 | 
[V:4]  [K:C] [K:clef=bass][M:3/1]z12 | 
[V:1] z2G4E2E4 | 
[V:2] dcBAG2A3Gc2- | 
[V:3] z12 | 
[V:4] z12 | 
[V:1] z2F4D2D4 | 
[V:2] cBAGF2G3F_B2- | 
[V:3] z12 | 
[V:4] z12 | 
[V:1] z2E4C2C4 | 
[V:2] BAGFE2F3EA2- | 
[V:3] z12 | 
[V:4] z12 | 
[V:1] z4z2A3GF2 | 
[V:2] AGFED2f3ed2 | 
[V:3] z12 | 
[V:4] A,6F,2F,4 | 
[V:1] E2D2EDG3FE2 | 
[V:2] c2B4e3dc2 | 
[V:3] z12 | 
[V:4] z2G,4E,2E,4 | 
[V:1] D2C2DCF3ED2 | 
[V:2] B2A4d3cB2 | 
[V:3] z12 | 
[V:4] z2F,4D,2D,4 | 
[V:1] C2B,2CB,E3DC2 | 
[V:2] A2G4c3BA2 | 
[V:3] z12 | 
[V:4] z2E,4C,2C,4 | 
[V:1] B,2A,2B,A,F4ED | 
[V:2] G2F2D4_B4 | 
[V:3] d12 | 
[V:4] z2D,4_B,,2B,,4 | 
[V:1] E8z2E2 | 
[V:2] A4G2A6 | 
[V:3] c12 | 
[V:4] z2C,4A,,2A,,4 | 
[V:1] F2D3C_B,A,B,4 | 
[V:2] F2G2D2G6 | 
[V:3] d12 | 
[V:4] z2_B,,4G,,2G,,4 | 
[V:1] A,8A4 | 
[V:2] E3CC2F3GA2 | 
[V:3] c12 | 
[V:4] z2A,,4F,,2F,,4 | 
[V:1] F4_B8 | 
[V:2] D8G4 | 
[V:3] d12 | 
[V:4] z2_B,,4G,,2G,,4 | 
[V:1] A4D2d3c_BA | 
[V:2] F6EDd2D2 | 
[V:3] f12 | 
[V:4] z2D,4_B,,2B,,4 | 
[V:1] G4z2c3BAG | 
[V:2] E3FG2A3Bc2 | 
[V:3] e12 | 
[V:4] z2C,4A,,2A,,4 | 
[V:1] F2D2F2G2_B4 | 
[V:2] d4D4G4 | 
[V:3] d12- | 
[V:4] z2_B,,4G,,2G,,4 | 
[V:1] A12 |]  
[V:2] F12 |]  
[V:3] d12 |]  
[V:4] D,12 |]  



